X:12
T:Contry Rammler
Z: id:dc-slide-39
M:6/8
L:1/8
K:E Dorianf edc|B2A B2c d3
D2|E2c c2G|E2G E2D|D3 E2D|!
EGF G3|FDF AFA|Bcd AFE|FDD D2:|!
d|g3 f3|edB G3|BAG FGE|D2d BdB|AFA d3|!
B2G A2D|GAB G2B|ded dcB AGF|G2G GAG|EAA AGA|BGF G:|!